!!!ONB: MCCC : IJB0007_01 : Extracted Monophonic Melody
!!!COM: Brahms, Johannes
!!!OPR: Ballades
!!!OMV: 1
!!!SCT: Op.10
!!!ODT: 1854///
**kern
*staff1
*clefG2
*k[b-e-]
*B-:
*M4/4
8.aa
32aa
32bb-
=2
4aa
8ff
8gg
4aa
4dd
=3
4.ee
8a
4a
4ee
=4
4a
4e
4A
8.aa
32aa
32bb-
=5
4aa
8ff
8gg
4aa
8.dd
32dd
32ee-
=6
4dd
8b-
8cc
4dd
4g
=7
2.d-
4r
=8
1r
=9
2r
4r
4dd
=10
4cc
8b-
8cc
4a
4g
=11
4dd
4cc
4.a
8g
=12
4g
4g
4f
8e-
8f
=13
2r
4g
4f
=14
4b-
8b-
8a
4a
8.aa
32aa
32bb-
=15
4aa
8ff
8gg
4aa
4dd
=16
4.ee
8a
4a
4ee
=17
4a
4e
4A
8.aa
32aa
32bb-
=18
4aa
8ff
8gg
4aa
8.dd
32dd
32ee-
=19
4dd
8b-
8cc
4dd
4g
=20
2.d-
4r
=21
1r
=22
2r
4r
4b-
=23
4cc
8dd
8cc
4dd
4gg
=24
4b-
4cc
4.dd
8g
=25
4g
4e-
4f
8g
8f
=26
4g
4cc
4e-
4f
=27
4.g
8a
4a
12ff#
12ff#
12ff#
=28
2.ff#
12ff#
12ff#
12ff#
=29
2.ff#
12ff#
12gg
12aa
=30
2.ee
12ff#
12gg
12aa
=31
2.ee
12ff#
12ff#
12ff#
=32
2.ff#
12ff#
12ee
12ff#
=33
2.gg
12aa-
12aa-
12aa-
=34
2.aa-
12aa-
12ff#
12gg#
=35
2.aa
12bb-
12bb-
12bb-
=36
2.bb-
12bb
12bb
12bb
=37
4bb
12ddd-
12ddd-
12ddd-
4ddd-
12eee-
12eee-
12eee-
=38
2.eee-
12eee
12eee
12eee
=39
4eee
8eee
8eee[
4eee]
12fff#
12fff#
12fff#
=40
4fff#
12ggg
12ggg
12ggg
4ggg
12aaa
12aaa
12aaa
=41
4aaa
16aaa
16aaa
8aaa[
4aaa]
12aaa
12aaa
12aaa
=42
4aaa
16aaa
16aaa
8aaa[
4aaa]
12aaa
12aaa
12aaa
=43
4bbb-
16bbb-
16bbb-
8bbb-[
4bbb-]
12aaa
12aaa
12aaa
=44
4bbb-
16bbb-
16bbb-
8bbb-[
4bbb-]
4ddd
=45
4ccc
8bb-
8ccc
4aa
4gg
=46
4ddd
4ccc
4.aa
8gg
=47
4gg
4gg
4ff
8ee-
8ff
=48
4dd
4cc
4gg
4ff
=49
4.dd
8cc
4cc
4dd
=50
4cc
8b-
8cc
4a-
4g
=51
4dd
4cc
4.a-
8g
=52
4g
4g
4f
8e-
8f
=53
4d
4c
4g
4f
=54
4b-
4a-
4g
4f
=55
4b-
4a-
2g
=56
2f
2e-
=57
2d
2d-
=58
4c
4r
2r
=59
1r
=60
2r
4r
8.aa
32aa
32bb-
=61
4aa
8ff
8gg
4aa
4dd
=62
4.ee
8a
4a
4ee
=63
4a
4r
4r
8.aa
32aa
32bb-
=64
4aa
8ff
8gg
4aa
8.dd
32dd
32ff
=65
4ee
8cc
8dd
4ee
4a
=66
2.b-
4a
=67
2.g
4r
=68
1r
=69
1r
=70
1r
=71
1r
=72
1r
==
*-
